X: 3317
M: 3/4
L: 1/4
K: G
ud |\
ded | (g2f) | f^de | e3 |\
ded | (g2f) | f^de | e3 |\
edc | (e2d) | d^AB | B3 |
gfg | age | edB | B3 |\
gfg | age | edB | B3 |\
ggg | ^g2g | a3 | e2e |\
dfg | aef | "D.C. to Allegro."g3- | gz |]



